X: 19496
T: Jackson's Trip To Aughrim
R: jig
M: 6/8
K: Dmajor
|:A2D FED|FGA FED|GBG FAF|EFE E2B|
A2D FED|FGA FED|B2G A2F|1 DED D2B:|2 DED D2e||
f2d edB|d2B BAF|EFE EFA|dcd efg|
fed edB|dBB BAF|FEF AFE|1 DED D2e:|2 DED D2B||

